X: 1
T: Khosidl
M: 2/4
L: 1/16
Z: John Chambers <jc:trillian.mit.edu>
K: Ephr^G
|: "E"EFEF GAGF | G2E2 B,2E2 | GAGA BcBA | B2G2 E2G2 || EGBd cBAG | "Dm"AGFE D4 |
| ^CDEF GAGF | "E"GFE6 :: "E"B8 | B8 | B4 B4 | B4 B4 || "E"BcBc B3A |
| GAGA B4 | BcBc B3A | "(Dm)"GAGF "E"E4 || "E"BcBc B3A | GABc "Dm"d4 |
| dccB BAAG | GAGF "E"E4 :: "E"G3F EDEF | GAGF E4 | EcBA GABc |
| B4 e4 || "(Dm)"dcBA GABc | dcBA GFED | "Dm"^CDEF GAGF | "E"GFE6 :|
